X:307
T: ES WOLLT EIN MAEDCHEN TANZEN GEHN
N: E0174D
O: Europa, Mitteleuropa, Deutschland, Rheinland
R: erzaehlendes Volks - Lied, Sage, Pflanzen - Maerchen, Moral - Lied
M: 3/4
L: 1/16
K: G
D4 | G2B2B4A2G2 | F2A2D4z2
D2 | G2B2d6B2 | B4A4
D4 | G2B2B4A2G2 | F2A2D4z2
D2 | G2B2d6B2 | B4A4
A2B2 | c2e2e4d2c2 | Bcded6
B2 | A2B2c6d2 | c4B4
A2B2 | c2e2e4d2c2 | Bcded6
B2 | A2B2c6d2 | c4B4

